X:1
T:St. Paul’s College, SM
T:St. Paul’s College, SM
T:George Lomas, 1876
T:Public Domain Courtesy of the Cyber Hymnal™
C:George Lomas, 1876
Z:Public Domain
Z:Courtesy of the Cyber Hymnal™
%%score ( 1 2 ) ( 3 4 )
L:1/8
M:3/4
K:F
V:1 treble 
V:2 treble 
V:3 bass 
V:4 bass 
V:1
 A2 [GB]2 [Fc]2 | [Ec]4 [EG]2 | [EG]6 | [DF]2 [EG]2 [FA]2 | [EA]4 E2 | E6 | [EA]2 [EB]2 [EA]2 | %7
 [DF]4 [EG]2 | [FA]4 [EB]2 | [Fc]6 | [FA]2 [FA]2 [FG]2 | [FA]4 [EB]2 | [FA]6 |] %13
V:2
 A2 x4 | x6 | x6 | x6 | x4 E2 | E6 | x6 | x6 | x6 | x6 | x6 | x6 | x6 |] %13
V:3
 [F,C]2 [F,B,]2 [F,A,]2 | [C,B,]4 [C,B,]2 | [C,B,]6 | [D,A,]2 [D,A,]2 [D,D]2 | [A,^C]4 [A,C]2 | %5
 [A,^C]6 | [A,^C]2 [G,D]2 [A,C]2 | (D2 A,2) [C,C]2 | [F,C]4 [G,B,]2 | A,6 | [F,C]2 [D,D]2 [B,,D]2 | %11
 [C,C]4 [C,C]2 | [F,,F,C]6 |] %13
V:4
 x6 | x6 | x6 | x6 | x6 | x6 | x6 | D,4 x2 | x6 | A,6 | x6 | x6 | x6 |] %13

